dist/svg/u1F949.svg

<?xml version="1.0" encoding="UTF-8"?><svg id="a" xmlns="http://www.w3.org/2000/svg" viewBox="0 0 40 40"><rect width="40" height="40" fill="none"/><g><g><path d="M17.547,19.789h7.226c.369,0,.707-.209,.871-.541l7.601-15.345c.32-.646-.15-1.403-.871-1.403h-7.226c-.369,0-.707,.209-.871,.541l-7.601,15.345c-.32,.646,.15,1.403,.871,1.403Z" fill="#ff9000"/><path d="M22.453,19.789h-7.226c-.369,0-.707-.209-.871-.541L6.755,3.903c-.32-.646,.15-1.403,.871-1.403h7.226c.369,0,.707,.209,.871,.541l7.601,15.345c.32,.646-.15,1.403-.871,1.403Z" fill="#ffad00"/><circle cx="20" cy="24.378" r="13.122" fill="#9c5522"/><circle cx="20" cy="24.378" r="10.497" fill="#cf712d"/></g><path d="M20.143,28.15c1.151,0,1.758-.622,1.774-1.509,.015-1.011-.482-1.54-1.882-1.54h-1.229v-2.116h1.182c1.027,0,1.603-.576,1.603-1.416,0-.809-.514-1.385-1.494-1.385s-1.618,.623-1.711,1.448h-2.691c.155-2.039,2.053-3.563,4.402-3.563s4.107,1.292,4.107,3.236c0,1.292-.747,2.349-2.194,2.629,1.587,.203,2.52,1.276,2.52,2.707,0,2.132-1.836,3.625-4.387,3.625-2.381,0-4.341-1.415-4.543-3.562h2.692c.202,.871,.871,1.447,1.851,1.447Z" fill="#fff"/></g></svg>

<svg id="Layer_1" data-name="Layer 1" xmlns="http://www.w3.org/2000/svg" viewBox="0 0 40 40"><defs><style>.cls-1{fill:none;}.cls-2{fill:#ff9000;}.cls-3{fill:#ffad00;}.cls-4{fill:#9c5522;}.cls-5{fill:#cf712d;}.cls-6{fill:#fff;}</style></defs><rect class="cls-1" width="40" height="40"/><path class="cls-2" d="M17.547,19.789h7.226a.973.973,0,0,0,.871-.541L33.245,3.9a.972.972,0,0,0-.871-1.4H25.148a.97.97,0,0,0-.87.541l-7.6,15.344A.972.972,0,0,0,17.547,19.789Z"/><path class="cls-3" d="M22.453,19.789H15.227a.973.973,0,0,1-.871-.541L6.755,3.9a.972.972,0,0,1,.871-1.4h7.226a.97.97,0,0,1,.87.541l7.6,15.344A.972.972,0,0,1,22.453,19.789Z"/><circle class="cls-4" cx="20" cy="24.378" r="13.122"/><circle class="cls-5" cx="20" cy="24.378" r="10.497"/><path class="cls-6" d="M20.143,28.15c1.151,0,1.757-.622,1.774-1.509.015-1.011-.483-1.54-1.883-1.54H18.805V22.985h1.182a1.406,1.406,0,0,0,1.6-1.416A1.331,1.331,0,0,0,20.1,20.184a1.616,1.616,0,0,0-1.711,1.448H15.694a4.153,4.153,0,0,1,4.4-3.564c2.349,0,4.107,1.292,4.107,3.236a2.55,2.55,0,0,1-2.193,2.629,2.655,2.655,0,0,1,2.52,2.708c0,2.131-1.836,3.625-4.387,3.625-2.381,0-4.341-1.416-4.543-3.563h2.692A1.8,1.8,0,0,0,20.143,28.15Z"/></svg>
